svg/leaves2a.svg

<?xml version="1.0" encoding="UTF-8" standalone="no"?>
<!-- Created with Inkscape (http://www.inkscape.org/) -->

<svg
   width="32"
   height="32"
   viewBox="0 0 8.4666666 8.4666668"
   version="1.1"
   id="svg5"
   inkscape:version="1.2 (dc2aeda, 2022-05-15)"
   sodipodi:docname="leaves2a.svg"
   xmlns:inkscape="http://www.inkscape.org/namespaces/inkscape"
   xmlns:sodipodi="http://sodipodi.sourceforge.net/DTD/sodipodi-0.dtd"
   xmlns="http://www.w3.org/2000/svg"
   xmlns:svg="http://www.w3.org/2000/svg"
   xmlns:rdf="http://www.w3.org/1999/02/22-rdf-syntax-ns#"
   xmlns:cc="http://creativecommons.org/ns#">
  <sodipodi:namedview
     id="namedview7"
     pagecolor="#ffffff"
     bordercolor="#111111"
     borderopacity="1"
     inkscape:pageshadow="0"
     inkscape:pageopacity="0"
     inkscape:pagecheckerboard="1"
     inkscape:document-units="mm"
     showgrid="true"
     width="32mm"
     units="px"
     objecttolerance="10000"
     guidetolerance="10000"
     inkscape:snap-perpendicular="true"
     inkscape:snap-tangential="true"
     inkscape:zoom="34.90625"
     inkscape:cx="8.6517457"
     inkscape:cy="16.257833"
     inkscape:window-width="2560"
     inkscape:window-height="1301"
     inkscape:window-x="0"
     inkscape:window-y="25"
     inkscape:window-maximized="0"
     inkscape:current-layer="layer1"
     inkscape:showpageshadow="0"
     inkscape:deskcolor="#d1d1d1">
    <inkscape:grid
       type="xygrid"
       id="grid9"
       units="px"
       empspacing="2" />
  </sodipodi:namedview>
  <defs
     id="defs2" />
  <g
     inkscape:label="Layer 1"
     inkscape:groupmode="layer"
     id="layer1">
    <rect
       style="fill:#000000;fill-opacity:1;stroke:none;stroke-width:0.124725"
       id="rect6022"
       width="1.0583334"
       height="1.0583334"
       x="3.7041667"
       y="3.7041667" />
    <path
       id="path6107"
       style="fill:#000000;fill-opacity:1;stroke:none;stroke-width:0.264583"
       d="M 0.52916667,2.6458333 V 2.1166667 l 1.58750003,0 0,-1.58750003 h 0.5291666 l 0,2.11666623 z"
       sodipodi:nodetypes="ccccccc" />
    <path
       id="path1286"
       style="fill:#000000;fill-opacity:1;stroke:none;stroke-width:0.264583"
       d="M 7.9374993,2.6458333 V 2.1166667 h -1.5875 V 0.52916667 H 5.8208327 V 2.6458329 Z"
       sodipodi:nodetypes="ccccccc" />
    <path
       id="path1288"
       style="fill:#000000;fill-opacity:1;stroke:none;stroke-width:0.264583"
       d="M 0.52916667,5.8208327 V 6.3499993 H 2.1166667 v 1.5875 H 2.6458333 V 5.8208331 Z"
       sodipodi:nodetypes="ccccccc" />
    <path
       id="path1290"
       style="fill:#000000;fill-opacity:1;stroke:none;stroke-width:0.264583"
       d="m 7.9374993,5.8208327 v 0.5291666 h -1.5875 v 1.5875 H 5.8208327 V 5.8208331 Z"
       sodipodi:nodetypes="ccccccc" />
  </g>
  <metadata
     id="metadata33">
    <rdf:RDF>
      <cc:Work
         rdf:about="">
        <cc:license
           rdf:resource="http://creativecommons.org/licenses/by-sa/4.0/" />
      </cc:Work>
      <cc:License
         rdf:about="http://creativecommons.org/licenses/by-sa/4.0/">
        <cc:permits
           rdf:resource="http://creativecommons.org/ns#Reproduction" />
        <cc:permits
           rdf:resource="http://creativecommons.org/ns#Distribution" />
        <cc:requires
           rdf:resource="http://creativecommons.org/ns#Notice" />
        <cc:requires
           rdf:resource="http://creativecommons.org/ns#Attribution" />
        <cc:permits
           rdf:resource="http://creativecommons.org/ns#DerivativeWorks" />
        <cc:requires
           rdf:resource="http://creativecommons.org/ns#ShareAlike" />
      </cc:License>
    </rdf:RDF>
  </metadata>
</svg>

<svg width="32" height="32" viewBox="0 0 8.467 8.467" xmlns="http://www.w3.org/2000/svg"><path style="fill:#000;fill-opacity:1;stroke:none;stroke-width:.124725" d="M3.704 3.704h1.058v1.058H3.704z"/><path style="fill:#000;fill-opacity:1;stroke:none;stroke-width:.264583" d="M.53 2.646v-.53h1.587V.53h.529v2.117zM7.937 2.646v-.53H6.35V.53h-.53v2.117ZM.53 5.82v.53h1.587v1.587h.529V5.821ZM7.937 5.82v.53H6.35v1.587h-.53V5.821Z"/></svg>
